dist/assets/images/icons/icons8-уолтер-уайт.svg

<svg fill="#000000" xmlns="http://www.w3.org/2000/svg"  viewBox="0 0 16 16" width="30px" height="30px"><path d="M 3.5 1 A 0.50005 0.50005 0 0 0 3 1.5 L 3 4.3652344 C 2.2137926 4.1450338 1.4419009 3.8862267 0.7109375 3.546875 L 0.2890625 4.453125 C 1.2196123 4.8851351 2.1989829 5.2212294 3.203125 5.4726562 C 2.9465791 5.4569354 2.7065606 5.4636177 2.4941406 5.5273438 C 2.1797082 5.6216735 1.9087997 5.8505954 1.78125 6.1269531 C 1.5261506 6.6796686 1.7027349 7.2294935 1.9101562 7.7480469 C 2.3167193 8.7644545 3.0521712 9.7360472 3.0820312 9.7753906 L 4.7753906 12.740234 C 5.2198409 13.518022 6.0485753 14 6.9453125 14 L 8.0546875 14 C 8.950674 14 9.7799594 13.518372 10.224609 12.740234 L 11.917969 9.7753906 C 11.947829 9.7360472 12.68328 8.7644545 13.089844 7.7480469 C 13.297262 7.2294938 13.473849 6.6796686 13.21875 6.1269531 C 13.0912 5.8505954 12.820292 5.6216734 12.505859 5.5273438 C 12.29344 5.4636176 12.053421 5.4569352 11.796875 5.4726562 C 12.801017 5.2212294 13.780388 4.8851351 14.710938 4.453125 L 14.289062 3.546875 C 13.558099 3.8862267 12.786207 4.1450338 12 4.3652344 L 12 1.5 A 0.50005 0.50005 0 0 0 11.5 1 L 3.5 1 z M 4 2 L 11 2 L 11 3 L 4 3 L 4 2 z M 4 4 L 11 4 L 11 4.6328125 C 8.7116968 5.1172483 6.2883032 5.1172483 4 4.6328125 L 4 4 z M 3.5722656 5.5625 C 6.1386472 6.1449185 8.8613527 6.1449185 11.427734 5.5625 L 11.582031 6.4941406 C 11.910377 6.4394166 12.121073 6.4576081 12.216797 6.4863281 C 12.312517 6.5150451 12.29943 6.5165919 12.3125 6.5449219 C 12.33865 6.6015809 12.32774 6.9580065 12.160156 7.3769531 C 11.824999 8.2148464 11.099609 9.1992187 11.099609 9.1992188 L 11.082031 9.2246094 L 9.9824219 11.146484 C 9.9372542 10.501646 9.5081212 9.9401409 8.8867188 9.75 C 8.4774037 9.6245476 7.9833608 9.5 7.5 9.5 C 7.0166392 9.5 6.5225962 9.6245476 6.1132812 9.75 C 5.4918788 9.9401409 5.0627458 10.501646 5.0175781 11.146484 L 3.9179688 9.2246094 L 3.9003906 9.1992188 C 3.9003906 9.1992188 3.1750011 8.2148464 2.8398438 7.3769531 C 2.6722651 6.9580065 2.6613494 6.6015814 2.6875 6.5449219 C 2.700575 6.5165919 2.6874794 6.5150451 2.7832031 6.4863281 C 2.8789271 6.4576111 3.0896224 6.4394186 3.4179688 6.4941406 L 3.5722656 5.5625 z M 4.7578125 6 C 4.3388125 6 4 6.3388125 4 6.7578125 L 4 7.2421875 C 4 7.6611875 4.3388125 8 4.7578125 8 L 5 8 C 6 8 7 7.4438125 7 6.7578125 C 7 6.3388125 6.6611875 6 6.2421875 6 L 4.7578125 6 z M 8.7578125 6 C 8.3388125 6 8 6.3388125 8 6.7578125 C 8 7.4438125 9 8 10 8 L 10.242188 8 C 10.661187 8 11 7.6611875 11 7.2421875 L 11 6.7578125 C 11 6.3388125 10.661188 6 10.242188 6 L 8.7578125 6 z M 6.0664062 11 L 8.9335938 11 C 8.9719824 11.076992 9 11.160204 9 11.251953 L 9 12 L 6 12 L 6 11.251953 C 6 11.160204 6.0280176 11.076992 6.0664062 11 z"/></svg>

<svg xmlns="http://www.w3.org/2000/svg" viewBox="0 0 16 16" width="30" height="30"><path d="M3.5 1a.5.5 0 00-.5.5v2.865a15.085 15.085 0 01-2.29-.818l-.42.906c.93.432 1.909.768 2.913 1.02-.256-.016-.496-.01-.709.054a1.162 1.162 0 00-.713.6c-.255.553-.078 1.102.13 1.621.406 1.016 1.141 1.988 1.171 2.027l1.693 2.965A2.501 2.501 0 006.945 14h1.11c.896 0 1.725-.482 2.17-1.26l1.693-2.965c.03-.039.765-1.01 1.172-2.027.207-.519.384-1.068.129-1.621a1.162 1.162 0 00-.713-.6c-.213-.063-.453-.07-.71-.054a16.35 16.35 0 002.915-1.02l-.422-.906c-.73.34-1.503.598-2.289.818V1.5a.5.5 0 00-.5-.5h-8zM4 2h7v1H4V2zm0 2h7v.633a17.04 17.04 0 01-7 0V4zm-.428 1.563c2.567.582 5.29.582 7.856 0l.154.931c.328-.055.54-.036.635-.008.096.029.082.03.095.059.027.057.016.413-.152.832-.335.838-1.06 1.822-1.06 1.822l-.018.026-1.1 1.921A1.568 1.568 0 008.887 9.75c-.41-.125-.904-.25-1.387-.25s-.977.125-1.387.25c-.621.19-1.05.752-1.095 1.396l-1.1-1.921-.018-.026s-.725-.984-1.06-1.822c-.168-.419-.179-.775-.152-.832.013-.028 0-.03.095-.059.096-.028.307-.047.635.008l.154-.931zM4.758 6A.757.757 0 004 6.758v.484c0 .42.339.758.758.758H5c1 0 2-.556 2-1.242A.757.757 0 006.242 6H4.758zm4 0A.757.757 0 008 6.758C8 7.444 9 8 10 8h.242A.757.757 0 0011 7.242v-.484A.757.757 0 0010.242 6H8.758zm-2.692 5h2.868c.038.077.066.16.066.252V12H6v-.748c0-.092.028-.175.066-.252z"/></svg>
